assets/imgs/mapa.svg

<svg width="18" height="24" viewBox="0 0 18 24" fill="none" xmlns="http://www.w3.org/2000/svg">
<path d="M8.99962 0C4.03715 0 0 4.03769 0 9.0007C0 12.547 1.4847 16.1342 4.2936 19.3745C6.39156 21.7948 8.4707 23.166 8.55826 23.2232C8.69229 23.3109 8.84601 23.3547 8.99973 23.3547C9.15334 23.3547 9.30706 23.3109 9.4412 23.2232C9.52866 23.166 11.6081 21.7948 13.7061 19.3747C16.5152 16.1342 18 12.547 18 9.0007C17.9999 4.03769 13.9623 0 8.99962 0ZM8.99962 21.5573C7.34443 20.3239 1.61357 15.577 1.61357 9.0007C1.61357 4.92741 4.92687 1.61357 8.99962 1.61357C13.0727 1.61357 16.3863 4.92741 16.3863 9.0007C16.3863 15.577 10.6549 20.3239 8.99962 21.5573Z" fill="#222222"/>
<path d="M9.00016 5.42676C7.03053 5.42676 5.42815 7.02925 5.42815 8.99909C5.42815 10.9684 7.03053 12.5706 9.00016 12.5706C10.9698 12.5706 12.5721 10.9684 12.5721 8.99909C12.5721 7.02935 10.9697 5.42676 9.00016 5.42676ZM9.00016 10.957C7.92026 10.957 7.04172 10.0787 7.04172 8.99909C7.04172 7.91897 7.92026 7.04033 9.00016 7.04033C10.08 7.04033 10.9585 7.91897 10.9585 8.99909C10.9585 10.0787 10.08 10.957 9.00016 10.957Z" fill="#222222"/>
</svg>

<svg width="18" height="24" fill="none" xmlns="http://www.w3.org/2000/svg"><path d="M9 0C4.037 0 0 4.038 0 9c0 3.547 1.485 7.134 4.294 10.375 2.098 2.42 4.177 3.791 4.264 3.848a.805.805 0 00.883 0c.088-.057 2.167-1.428 4.265-3.848C16.516 16.135 18 12.547 18 9 18 4.038 13.962 0 9 0zm0 21.557c-1.656-1.233-7.386-5.98-7.386-12.556 0-4.074 3.313-7.387 7.386-7.387S16.386 4.927 16.386 9c0 6.576-5.731 11.323-7.386 12.556z" fill="#222"/><path d="M9 5.427a3.576 3.576 0 00-3.572 3.572A3.576 3.576 0 009 12.571a3.576 3.576 0 003.572-3.572A3.576 3.576 0 009 5.427zm0 5.53a1.96 1.96 0 01-1.958-1.958A1.96 1.96 0 019 7.04 1.96 1.96 0 0110.96 9 1.96 1.96 0 019 10.956z" fill="#222"/></svg>
